X: 1
T: Miter\'itsa mou gliki\'a  [Em]
O: Greece
F: http://www.youtube.com/watch?v=0XgoZzk7pLY (score)
F: http://www.youtube.com/watch?v=XtPD_555BR4 (floyeri)
F: http://www.youtube.com/watch?v=ENvVsxrEefY (lyra)
M: 2/4
L: 1/16
K: Em
|: "Em"EzTB2 z2B2 | "D"cdcB TA2z2 | GzTA2 z2A2 | "Em"GAGF TE2z2 :|
|: "D"DzTF2 z2[F2D2] | z2[FD]z [F2D2]z2 | Fz[A2F2] z2A2 | "Em"GAGF TE2z2 :|
